Origami/48x48/apps/phoronix-test-suite.svg

<svg width="48" height="48" version="1" xmlns="http://www.w3.org/2000/svg">
 <path d="m8 5c-2.216 0-4 1.784-4 4v20 12c0 2.216 1.784 4 4 4s4-1.784 4-4v-8h28c2.216 0 4-1.784 4-4v-20c0-2.216-1.784-4-4-4h-32z" style="opacity:.2"/>
 <path d="m8 4c-2.216 0-4 1.784-4 4v20 12c0 2.216 1.784 4 4 4s4-1.784 4-4v-8h28c2.216 0 4-1.784 4-4v-20c0-2.216-1.784-4-4-4h-32z" style="fill:#7cb320"/>
 <path d="m15.847656 11c-2.131752 0-3.847656 1.686-3.847656 3.78125v2.21875h-3l5 4 5-4h-3v-2h14 2 4v-0.21875c0-2.09525-1.715904-3.78125-3.847656-3.78125zm18.152344 6l-5 4h3v2h-14-2-4v0.21875c0 2.09525 1.715904 3.78125 3.847656 3.78125h16.304688c2.131752 0 3.847656-1.686 3.847656-3.78125v-2.21875h3z" style="opacity:.2"/>
 <path d="m15.847656 10c-2.131752 0-3.847656 1.686-3.847656 3.78125v2.21875h-3l5 4 5-4h-3v-2h14 2 4v-0.21875c0-2.09525-1.715904-3.78125-3.847656-3.78125zm18.152344 6l-5 4h3v2h-14-2-4v0.21875c0 2.09525 1.715904 3.78125 3.847656 3.78125h16.304688c2.131752 0 3.847656-1.686 3.847656-3.78125v-2.21875h3z" style="fill:#ffffff"/>
 <circle cx="24" cy="18" r="2" style="fill:#3f3f3f"/>
 <path d="m8 4c-2.216 0-4 1.784-4 4v1c0-2.216 1.784-4 4-4h32c2.216 0 4 1.784 4 4v-1c0-2.216-1.784-4-4-4h-32z" style="fill:#ffffff;opacity:.2"/>
</svg>

<svg xmlns="http://www.w3.org/2000/svg" width="48" height="48" version="1">
 <path style="opacity:0.2" d="M 8,5 C 5.784,5 4,6.784 4,9 l 0,20 0,12 c 0,2.216 1.784,4 4,4 2.216,0 4,-1.784 4,-4 l 0,-8 28,0 c 2.216,0 4,-1.784 4,-4 L 44,9 C 44,6.784 42.216,5 40,5 L 8,5 Z"/>
 <path style="fill:#7cb320" d="M 8 4 C 5.784 4 4 5.784 4 8 L 4 28 L 4 40 C 4 42.216 5.784 44 8 44 C 10.216 44 12 42.216 12 40 L 12 32 L 40 32 C 42.216 32 44 30.216 44 28 L 44 8 C 44 5.784 42.216 4 40 4 L 8 4 z"/>
 <path style="opacity:0.2" d="M 15.847656,11 C 13.715904,11 12,12.686 12,14.78125 L 12,17 l -3,0 5,4 5,-4 -3,0 0,-2 14,0 2,0 4,0 0,-0.21875 C 36,12.686 34.284096,11 32.152344,11 Z M 34,17 l -5,4 3,0 0,2 -14,0 -2,0 -4,0 0,0.21875 C 12,25.314 13.715904,27 15.847656,27 l 16.304688,0 C 34.284096,27 36,25.314 36,23.21875 L 36,21 l 3,0 z"/>
 <path style="fill:#ffffff" d="M 15.847656,10 C 13.715904,10 12,11.686 12,13.78125 L 12,16 l -3,0 5,4 5,-4 -3,0 0,-2 14,0 2,0 4,0 0,-0.21875 C 36,11.686 34.284096,10 32.152344,10 Z M 34,16 l -5,4 3,0 0,2 -14,0 -2,0 -4,0 0,0.21875 C 12,24.314 13.715904,26 15.847656,26 l 16.304688,0 C 34.284096,26 36,24.314 36,22.21875 L 36,20 l 3,0 z"/>
 <circle style="fill:#3f3f3f" cx="24" cy="18" r="2"/>
 <path style="fill:#ffffff;opacity:0.2" d="M 8 4 C 5.784 4 4 5.784 4 8 L 4 9 C 4 6.784 5.784 5 8 5 L 40 5 C 42.216 5 44 6.784 44 9 L 44 8 C 44 5.784 42.216 4 40 4 L 8 4 z"/>
</svg>
